X:1
T:St. Theodulph, 76.76 D
T:St. Theodulph, 76.76 D
T:Melchior Teschner, 1615
T:Public Domain Courtesy of the Cyber Hymnal™
C:Melchior Teschner, 1615
Z:Public Domain
Z:Courtesy of the Cyber Hymnal™
%%score ( 1 2 ) ( 3 4 )
L:1/8
Q:1/4=110
M:4/4
K:C
V:1 treble 
V:2 treble 
V:3 bass 
V:4 bass 
V:1
 C2 | [DG]2 [CG]2 [CA]2 [FB]2 | c4 [Ec]2 [Ge]2 | d2 [Ec]2 [Dc]2 [DB]2 | [Ec]6 C2 | %5
 [DG]2 [CG]2 [CA]2 [FB]2 | c4 [Ec]2 [Ge]2 | d2 [Ec]2 [Dc]2 [DB]2 | [Ec]6 [Ec]2 | %9
 [Ge]2 [Ae]2 [Ad]2 [^Fc]2 | [GB]2 [^FA]2 [DG]2 [GB]2 | [Ec]2 [GB]2 [GA]2 [^FA]2 | G6 [DG]2 | %13
 [CE]2 [CG]2 [CA]2 [CG]2 | [DG]2 [B,F]2 [CE]2 [CG]2 | [CF]2 [CE]2 [CD]2 [B,D]2 x | C6 |] %17
V:2
 C2 | x8 | (F2 ED) x4 | (GF) x6 | x6 C2 | x8 | (F2 ED) x4 | (GF) x6 | x8 | x8 | x8 | x8 | G6 x2 | %13
 x8 | x8 | x9 | C6 |] %17
V:3
 [C,E,]2 | [B,,G,]2 [C,E,]2 F,2 [D,G,]2 | [C,G,]4 [C,G,]2 C2 | [G,B,]2 [A,C]2 [F,A,]2 G,2 | %4
 [C,G,]6 [C,E,]2 | [B,,G,]2 [C,E,]2 F,2 [D,G,]2 | [C,G,]4 [C,G,]2 [C,C]2 | %7
 [G,B,]2 [A,C]2 [G,B,]2 G,2 | [C,G,]6 [C,G,]2 | (CB,) C2 [^F,D]2 [D,D]2 | %10
 [G,D]2 [D,C]2 [G,B,]2 [E,E]2 | [A,,C]2 [B,,D]2 [C,E]2 (DC) | [G,,B,]6 [B,,G,]2 | %13
 [C,G,]2 [E,G,]2 F,2 [C,E,]2 | G,4 [C,G,]2 [E,G,]2 | [F,A,]2 [C,G,]2 G,3 (G,,-[G,,F,]) | [C,E,]6 |] %17
V:4
 x2 | x4 F,2 x2 | x6 C2 | x6 G,2 | x8 | x8 | x8 | x6 G,2 | x8 | x2 (A,G,) x4 | x8 | x6 D,2 | x8 | %13
 x8 | (B,,2 G,,2) x4 | x4 G,,2 x3 | x6 |] %17

